X:1
T:Carey, SM
T:Carey, SM
T:William Batchelder Bradbury, 1868
T:Public Domain Courtesy of the Cyber Hymnal™
C:William Batchelder Bradbury, 1868
Z:Public Domain
Z:Courtesy of the Cyber Hymnal™
%%score ( 1 2 ) ( 3 4 )
L:1/8
M:3/4
K:F
V:1 treble 
V:2 treble 
V:3 bass 
V:4 bass 
V:1
 [FA]2 | [Ec]4 F2 | [FA]4 [EG]2 | F4 [Fc]2 | [Fd]4 [Fd]2 | c2 A2 F2 | [EG]4 [FA]2 | [Ec]4 F2 | %8
 [FA]4 [EG]2 | F4 [B,D]2 | C4 [FA]2 | [EG]4 F2 | [FA]4 [EG]2 | F4 |] %14
V:2
 x2 | x4 F2 | x6 | F4 x2 | x6 | F4 F2 | x6 | x4 F2 | x6 | F4 x2 | C4 x2 | x4 F2 | x6 | F4 |] %14
V:3
 [F,A,]2 | [C,G,]4 (F,A,) | [C,C]4 [C,B,]2 | [F,A,]4 [F,A,]2 | [B,,B,]4 B,2 | A,2 C2 [A,,C]2 | %6
 [C,C]4 [F,A,]2 | [C,G,]4 (F,A,) | [C,C]4 [C,B,]2 | [D,A,]4 [B,,B,]2 | [F,,A,]4 [F,C]2 | %11
 [C,C]4 [D,A,]2 | [C,C]4 [C,B,]2 | [F,A,]4 |] %14
V:4
 x2 | x4 D,2 | x6 | x6 | x4 (D,E,) | F,4 x2 | x6 | x4 D,2 | x6 | x6 | x6 | x6 | x6 | x4 |] %14

